X:753
T:Dan O'Connell's Favourite
B:Music for the Sets (Yellow)
Z:Nigel Gatherer
M:2/4
L:1/8
K:D
z    | FG/F/ ED | dc/d/ ed  | cA AF  | G2 FE |
       FG/F/ ED | dc/d/ ed  | cA B^G | A3   :|
f/g/ | af    ge | fd    e>d | cd ef  | g2 fg |
       af    ge | fd    e>d | cA B^G | A3   :|
